!!!OTL: "Die Wecktrommel" DES MORGENS ZWISCHEN DREI UND VIEREN
!!!ARE: Europa, Mitteleuropa, Deutschland, Franken
!!!SCT: Z1074
!!!YEM: Copyright 1995, estate of Helmut Schaffrath.
**kern
*ICvox
*Ivox
*M4/4
*k[b-]
*F:
{8f
8a
=1
8cc
8cc
8cc
8ff
4a
4f
=2
4dd
4cc
4r}
{8f
8a
=3
8cc
8cc
8cc
8cc
8dd
8cc
8b-
8a
=4
4a
4g
4r}
{8f
8a
=5
4.cc
8a
8b-
8a
8b-
8cc
=6
4a
2r}
{8ff
8dd
=7
4.cc
8a
8cc
8b-
8a
8g
=8
4f
8r}
{8f
8cc
8cc
8cc
8cc
=9
16cc
16a
16b-
16g
8r}
{8f
8cc
8cc
8cc
8cc
=10
16cc
16a
16b-
16g
2r}
{8ff
8dd
=11
4.cc
8a
8cc
8b-
8a
8g
=12
4f
2r}
==
!!!AGN: Soldaten - Lied
!!!ONB: ESAC (Essen Associative Code) Database: ZUCCAL
!!!AMT: simple quadruple
!!!AIN: vox
!!!EED: Helmut Schaffrath
!!!EEV: 1.0
*-
